X:1
T:冬の星座
T:冬の星座
T:Fuyu no Seiza 1871, 1947 
T:William S. Hays
T:堀内　敬三 Keizou Horiuchi 
T:１．木枯らしとだえて　さゆる空より 地上に降りしく　奇しき光よ ものみないこえる　しじまの中に きらめき揺れつつ　星座はめぐる
T:２．ほのぼの明かりて　流るる銀河 オリオン舞い立ち　スバルはさざめく 無窮をゆびさす　北斗の針と きらめき揺れつつ 星座はめぐる
T:1871, 1947
C:William S. Hays
Z:堀内　敬三 Keizou Horiuchi
Z:1871, 1947
L:1/8
Q:1/4=100
M:4/4
K:C
V:1 treble nm="Piano" snm="Pno."
V:1
"C" C3 D EGAc | G4 E2 z2 | C3 D EAGE |"G7" D6 z2 |"C" C3 D EGAc | G4 E2 z2 | c3 c B"E7"EEE | %7
w: １．こ が ら し と だ|え て|さ ゆ る そ ら よ|り|ち じょ う に ふ り|し く|く す し き ひ か|
w: ２．ほ の ぼ の あ か|り て|な が る う ぎ ん|が|オ リ オ ン ま い|た ち|ス バ ル は さ ざ|
w: １．Ko- ga- ra- shi to- da-|e- te|sa- yu- ru so- ra yo-|ri|chi- jyo- u ni fu- ri-|shi- ku|ku- su- shi- ki hi- ka-|
w: ２．Ho- no- bo- no a- ka-|ri- te|na- ga- ru- ru gi- n-|ga|O- ri- o- n ma- i|ta- chi|Su- ba- ru wa sa- za-|
"Am" A4 B4 |"C" c3 B"F" dcBA |"C" G4 E2 z2 | c3 B dcGE |"G7" D6 z2 |"C" C3 D EGAc | G4 E2 z2 | %14
w: り よ|も の み な い こ|え る|し じ ま の な か|に|き ら め き ゆ れ|つ つ|
w: め く|む きゅ う を ゆ び|さ す|ほ く と の は り|と|き ら め き ゆ れ|つ つ|
w: ri yo|mo- no mi- na i- ko-|e- ru|shi- ji- ma no na- ka|ni|ki- ra- me- ki yu- re-|tsu- tsu|
w: me- ku|mu- kyu- u wo yu- bi|sa- su|ho- ku- to no ha- ri|to|ki- ra- me- ki yu- re-|tsu- tsu|
"F" A3 B"C" cE"G7"DE |"C" C6 z2 |] %16
w: せ い ざ は め ぐ|る|
w: せ い ざ は め ぐ|る|
w: se- i- za wa me- gu-|ru.|
w: se- i- za wa me- gu-|ru.|

